X:130
T: Rover's Return
S: Allan's Irish Fiddler
Z: B.Black
L: 1/8
M: 6/8
R: jig
K: G
g/f/|ecA fed|ecA A2 f|ecA gfe|dBG G2 g/f/|
ecA fed|ecA A2 f|gag gfe|dBG G2 :|
A/B/|A2 a aea|aea ae^c|A^ce agf|gdB GAB|
A2 a aea|aea aef|gag gfe|dBG G2 :|
